report_00007_2020-12-11T15:55:29.892Z/duplicated-javascript/comparison/line/1_vs_2.svg

<svg width="640" height="500" xmlns="http://www.w3.org/2000/svg" xmlns:xlink="http://www.w3.org/1999/xlink"><path fill="#fff" d="M0 0h640v500H0z"/><defs><path id="d" stroke-width=".222" stroke="currentColor" d="M-1-1h2v2h-2z"/><path id="b" stroke-width=".222" stroke="currentColor" d="M0-1.33l-1.33 2h2.66z"/><path id="f" stroke-width=".222" stroke="currentColor" d="M0 1.33L1.265.411.782-1.067l-1.564-.009-.483 1.487z"/><use xlink:href="#b" id="c" stroke="currentColor" transform="rotate(180)"/><use xlink:href="#d" id="e" stroke="currentColor" transform="rotate(45)"/><circle id="a" stroke-width=".222" stroke="currentColor" cx="0" cy="0" r="1"/></defs><g fill="none" color="#000" stroke="currentColor"><path stroke="#000" d="M78.8 446h9m527.2 0h-9"/><text transform="translate(70.5 449.9)" stroke="none" fill="#000" font-family="Arial" font-size="12" text-anchor="end"><tspan>-0.001</tspan></text></g><g fill="none" color="#000" stroke="currentColor"><path stroke="#000" d="M78.8 339h9m527.2 0h-9"/><text transform="translate(70.5 342.9)" stroke="none" fill="#000" font-family="Arial" font-size="12" text-anchor="end"><tspan>-0.0005</tspan></text></g><g fill="none" color="#000" stroke="currentColor"><path stroke="#000" d="M78.8 232h9m527.2 0h-9"/><text transform="translate(70.5 235.9)" stroke="none" fill="#000" font-family="Arial" font-size="12" text-anchor="end"><tspan>0</tspan></text></g><g fill="none" color="#000" stroke="currentColor"><path stroke="#000" d="M78.8 125.1h9m527.2 0h-9"/><text transform="translate(70.5 129)" stroke="none" fill="#000" font-family="Arial" font-size="12" text-anchor="end"><tspan>0.0005</tspan></text></g><g fill="none" color="#000" stroke="currentColor"><path stroke="#000" d="M78.8 18.1h9m527.2 0h-9"/><text transform="translate(70.5 22)" stroke="none" fill="#000" font-family="Arial" font-size="12" text-anchor="end"><tspan>0.001</tspan></text></g><g fill="none" color="#000" stroke="currentColor"><path stroke="#000" d="M78.8 446v-9m0-418.9v9"/><text transform="translate(78.8 467.9)" stroke="none" fill="#000" font-family="Arial" font-size="12" text-anchor="middle"><tspan>0</tspan></text></g><g fill="none" color="#000" stroke="currentColor"><path stroke="#000" d="M133 446v-9m0-418.9v9"/><text transform="translate(133 467.9)" stroke="none" fill="#000" font-family="Arial" font-size="12" text-anchor="middle"><tspan>10</tspan></text></g><g fill="none" color="#000" stroke="currentColor"><path stroke="#000" d="M187.1 446v-9m0-418.9v9"/><text transform="translate(187.1 467.9)" stroke="none" fill="#000" font-family="Arial" font-size="12" text-anchor="middle"><tspan>20</tspan></text></g><g fill="none" color="#000" stroke="currentColor"><path stroke="#000" d="M241.3 446v-9m0-418.9v9"/><text transform="translate(241.3 467.9)" stroke="none" fill="#000" font-family="Arial" font-size="12" text-anchor="middle"><tspan>30</tspan></text></g><g fill="none" color="#000" stroke="currentColor"><path stroke="#000" d="M295.4 446v-9m0-418.9v9"/><text transform="translate(295.4 467.9)" stroke="none" fill="#000" font-family="Arial" font-size="12" text-anchor="middle"><tspan>40</tspan></text></g><g fill="none" color="#000" stroke="currentColor"><path stroke="#000" d="M349.6 446v-9m0-418.9v9"/><text transform="translate(349.6 467.9)" stroke="none" fill="#000" font-family="Arial" font-size="12" text-anchor="middle"><tspan>50</tspan></text></g><g fill="none" color="#000" stroke="currentColor"><path stroke="#000" d="M403.8 446v-9m0-418.9v9"/><text transform="translate(403.8 467.9)" stroke="none" fill="#000" font-family="Arial" font-size="12" text-anchor="middle"><tspan>60</tspan></text></g><g fill="none" color="#000" stroke="currentColor"><path stroke="#000" d="M457.9 446v-9m0-418.9v9"/><text transform="translate(457.9 467.9)" stroke="none" fill="#000" font-family="Arial" font-size="12" text-anchor="middle"><tspan>70</tspan></text></g><g fill="none" color="#000" stroke="currentColor"><path stroke="#000" d="M512.1 446v-9m0-418.9v9"/><text transform="translate(512.1 467.9)" stroke="none" fill="#000" font-family="Arial" font-size="12" text-anchor="middle"><tspan>80</tspan></text></g><g fill="none" color="#000" stroke="currentColor"><path stroke="#000" d="M566.3 446v-9m0-418.9v9"/><text transform="translate(566.3 467.9)" stroke="none" fill="#000" font-family="Arial" font-size="12" text-anchor="middle"><tspan>90</tspan></text></g><path stroke="#000" d="M78.8 18.1V446H615V18.1H78.8z" fill="none" color="#000"/><text transform="translate(288.1 485.9)" stroke="none" fill="#000" font-family="Arial" font-size="12" text-anchor="end" color="#000"><tspan>pages</tspan></text><path stroke="#9400D3" d="M296.4 482h42.2M78.8 232H615" fill="none" color="#000"/><text transform="translate(446.5 485.9)" stroke="none" fill="#000" font-family="Arial" font-size="12" text-anchor="end" color="#000"><tspan>pages+cached</tspan></text><path stroke="#009E73" d="M454.8 482H497M78.8 232H615" fill="none" color="#000"/><g fill="none" color="#000" stroke="currentColor"><path stroke="#000" d="M78.8 18.1V446H615V18.1H78.8z"/></g></svg>

<?xml version="1.0" encoding="utf-8"  standalone="no"?>
<svg 
 width="640" height="500"
 viewBox="0 0 640 500"
 xmlns="http://www.w3.org/2000/svg"
 xmlns:xlink="http://www.w3.org/1999/xlink"
>

<title>Gnuplot</title>
<desc>Produced by GNUPLOT 5.4 patchlevel 0 </desc>

<g id="gnuplot_canvas">

<rect x="0" y="0" width="640" height="500" fill="#ffffff"/>
<defs>

	<circle id='gpDot' r='0.5' stroke-width='0.5' stroke='currentColor'/>
	<path id='gpPt0' stroke-width='0.222' stroke='currentColor' d='M-1,0 h2 M0,-1 v2'/>
	<path id='gpPt1' stroke-width='0.222' stroke='currentColor' d='M-1,-1 L1,1 M1,-1 L-1,1'/>
	<path id='gpPt2' stroke-width='0.222' stroke='currentColor' d='M-1,0 L1,0 M0,-1 L0,1 M-1,-1 L1,1 M-1,1 L1,-1'/>
	<rect id='gpPt3' stroke-width='0.222' stroke='currentColor' x='-1' y='-1' width='2' height='2'/>
	<rect id='gpPt4' stroke-width='0.222' stroke='currentColor' fill='currentColor' x='-1' y='-1' width='2' height='2'/>
	<circle id='gpPt5' stroke-width='0.222' stroke='currentColor' cx='0' cy='0' r='1'/>
	<use xlink:href='#gpPt5' id='gpPt6' fill='currentColor' stroke='none'/>
	<path id='gpPt7' stroke-width='0.222' stroke='currentColor' d='M0,-1.33 L-1.33,0.67 L1.33,0.67 z'/>
	<use xlink:href='#gpPt7' id='gpPt8' fill='currentColor' stroke='none'/>
	<use xlink:href='#gpPt7' id='gpPt9' stroke='currentColor' transform='rotate(180)'/>
	<use xlink:href='#gpPt9' id='gpPt10' fill='currentColor' stroke='none'/>
	<use xlink:href='#gpPt3' id='gpPt11' stroke='currentColor' transform='rotate(45)'/>
	<use xlink:href='#gpPt11' id='gpPt12' fill='currentColor' stroke='none'/>
	<path id='gpPt13' stroke-width='0.222' stroke='currentColor' d='M0,1.330 L1.265,0.411 L0.782,-1.067 L-0.782,-1.076 L-1.265,0.411 z'/>
	<use xlink:href='#gpPt13' id='gpPt14' fill='currentColor' stroke='none'/>
	<filter id='textbox' filterUnits='objectBoundingBox' x='0' y='0' height='1' width='1'>
	  <feFlood flood-color='#FFFFFF' flood-opacity='1' result='bgnd'/>
	  <feComposite in='SourceGraphic' in2='bgnd' operator='atop'/>
	</filter>
	<filter id='greybox' filterUnits='objectBoundingBox' x='0' y='0' height='1' width='1'>
	  <feFlood flood-color='lightgrey' flood-opacity='1' result='grey'/>
	  <feComposite in='SourceGraphic' in2='grey' operator='atop'/>
	</filter>
</defs>
<g fill="none" color="#FFFFFF" stroke="black" stroke-width="1.00" stroke-linecap="butt" stroke-linejoin="miter">
</g>
<g fill="none" color="black" stroke="currentColor" stroke-width="1.00" stroke-linecap="butt" stroke-linejoin="miter">
	<path stroke='black'  d='M78.8,446.0 L87.8,446.0 M615.0,446.0 L606.0,446.0  '/>	<g transform="translate(70.5,449.9)" stroke="none" fill="black" font-family="Arial" font-size="12.00"  text-anchor="end">
		<text><tspan font-family="Arial" >-0.001</tspan></text>
	</g>
</g>
<g fill="none" color="black" stroke="currentColor" stroke-width="1.00" stroke-linecap="butt" stroke-linejoin="miter">
	<path stroke='black'  d='M78.8,339.0 L87.8,339.0 M615.0,339.0 L606.0,339.0  '/>	<g transform="translate(70.5,342.9)" stroke="none" fill="black" font-family="Arial" font-size="12.00"  text-anchor="end">
		<text><tspan font-family="Arial" >-0.0005</tspan></text>
	</g>
</g>
<g fill="none" color="black" stroke="currentColor" stroke-width="1.00" stroke-linecap="butt" stroke-linejoin="miter">
	<path stroke='black'  d='M78.8,232.0 L87.8,232.0 M615.0,232.0 L606.0,232.0  '/>	<g transform="translate(70.5,235.9)" stroke="none" fill="black" font-family="Arial" font-size="12.00"  text-anchor="end">
		<text><tspan font-family="Arial" > 0</tspan></text>
	</g>
</g>
<g fill="none" color="black" stroke="currentColor" stroke-width="1.00" stroke-linecap="butt" stroke-linejoin="miter">
	<path stroke='black'  d='M78.8,125.1 L87.8,125.1 M615.0,125.1 L606.0,125.1  '/>	<g transform="translate(70.5,129.0)" stroke="none" fill="black" font-family="Arial" font-size="12.00"  text-anchor="end">
		<text><tspan font-family="Arial" > 0.0005</tspan></text>
	</g>
</g>
<g fill="none" color="black" stroke="currentColor" stroke-width="1.00" stroke-linecap="butt" stroke-linejoin="miter">
	<path stroke='black'  d='M78.8,18.1 L87.8,18.1 M615.0,18.1 L606.0,18.1  '/>	<g transform="translate(70.5,22.0)" stroke="none" fill="black" font-family="Arial" font-size="12.00"  text-anchor="end">
		<text><tspan font-family="Arial" > 0.001</tspan></text>
	</g>
</g>
<g fill="none" color="black" stroke="currentColor" stroke-width="1.00" stroke-linecap="butt" stroke-linejoin="miter">
	<path stroke='black'  d='M78.8,446.0 L78.8,437.0 M78.8,18.1 L78.8,27.1  '/>	<g transform="translate(78.8,467.9)" stroke="none" fill="black" font-family="Arial" font-size="12.00"  text-anchor="middle">
		<text><tspan font-family="Arial" > 0</tspan></text>
	</g>
</g>
<g fill="none" color="black" stroke="currentColor" stroke-width="1.00" stroke-linecap="butt" stroke-linejoin="miter">
	<path stroke='black'  d='M133.0,446.0 L133.0,437.0 M133.0,18.1 L133.0,27.1  '/>	<g transform="translate(133.0,467.9)" stroke="none" fill="black" font-family="Arial" font-size="12.00"  text-anchor="middle">
		<text><tspan font-family="Arial" > 10</tspan></text>
	</g>
</g>
<g fill="none" color="black" stroke="currentColor" stroke-width="1.00" stroke-linecap="butt" stroke-linejoin="miter">
	<path stroke='black'  d='M187.1,446.0 L187.1,437.0 M187.1,18.1 L187.1,27.1  '/>	<g transform="translate(187.1,467.9)" stroke="none" fill="black" font-family="Arial" font-size="12.00"  text-anchor="middle">
		<text><tspan font-family="Arial" > 20</tspan></text>
	</g>
</g>
<g fill="none" color="black" stroke="currentColor" stroke-width="1.00" stroke-linecap="butt" stroke-linejoin="miter">
	<path stroke='black'  d='M241.3,446.0 L241.3,437.0 M241.3,18.1 L241.3,27.1  '/>	<g transform="translate(241.3,467.9)" stroke="none" fill="black" font-family="Arial" font-size="12.00"  text-anchor="middle">
		<text><tspan font-family="Arial" > 30</tspan></text>
	</g>
</g>
<g fill="none" color="black" stroke="currentColor" stroke-width="1.00" stroke-linecap="butt" stroke-linejoin="miter">
	<path stroke='black'  d='M295.4,446.0 L295.4,437.0 M295.4,18.1 L295.4,27.1  '/>	<g transform="translate(295.4,467.9)" stroke="none" fill="black" font-family="Arial" font-size="12.00"  text-anchor="middle">
		<text><tspan font-family="Arial" > 40</tspan></text>
	</g>
</g>
<g fill="none" color="black" stroke="currentColor" stroke-width="1.00" stroke-linecap="butt" stroke-linejoin="miter">
	<path stroke='black'  d='M349.6,446.0 L349.6,437.0 M349.6,18.1 L349.6,27.1  '/>	<g transform="translate(349.6,467.9)" stroke="none" fill="black" font-family="Arial" font-size="12.00"  text-anchor="middle">
		<text><tspan font-family="Arial" > 50</tspan></text>
	</g>
</g>
<g fill="none" color="black" stroke="currentColor" stroke-width="1.00" stroke-linecap="butt" stroke-linejoin="miter">
	<path stroke='black'  d='M403.8,446.0 L403.8,437.0 M403.8,18.1 L403.8,27.1  '/>	<g transform="translate(403.8,467.9)" stroke="none" fill="black" font-family="Arial" font-size="12.00"  text-anchor="middle">
		<text><tspan font-family="Arial" > 60</tspan></text>
	</g>
</g>
<g fill="none" color="black" stroke="currentColor" stroke-width="1.00" stroke-linecap="butt" stroke-linejoin="miter">
	<path stroke='black'  d='M457.9,446.0 L457.9,437.0 M457.9,18.1 L457.9,27.1  '/>	<g transform="translate(457.9,467.9)" stroke="none" fill="black" font-family="Arial" font-size="12.00"  text-anchor="middle">
		<text><tspan font-family="Arial" > 70</tspan></text>
	</g>
</g>
<g fill="none" color="black" stroke="currentColor" stroke-width="1.00" stroke-linecap="butt" stroke-linejoin="miter">
	<path stroke='black'  d='M512.1,446.0 L512.1,437.0 M512.1,18.1 L512.1,27.1  '/>	<g transform="translate(512.1,467.9)" stroke="none" fill="black" font-family="Arial" font-size="12.00"  text-anchor="middle">
		<text><tspan font-family="Arial" > 80</tspan></text>
	</g>
</g>
<g fill="none" color="black" stroke="currentColor" stroke-width="1.00" stroke-linecap="butt" stroke-linejoin="miter">
	<path stroke='black'  d='M566.3,446.0 L566.3,437.0 M566.3,18.1 L566.3,27.1  '/>	<g transform="translate(566.3,467.9)" stroke="none" fill="black" font-family="Arial" font-size="12.00"  text-anchor="middle">
		<text><tspan font-family="Arial" > 90</tspan></text>
	</g>
</g>
<g fill="none" color="black" stroke="currentColor" stroke-width="1.00" stroke-linecap="butt" stroke-linejoin="miter">
</g>
<g fill="none" color="black" stroke="currentColor" stroke-width="1.00" stroke-linecap="butt" stroke-linejoin="miter">
	<path stroke='black'  d='M78.8,18.1 L78.8,446.0 L615.0,446.0 L615.0,18.1 L78.8,18.1 Z  '/></g>
<g fill="none" color="black" stroke="currentColor" stroke-width="1.00" stroke-linecap="butt" stroke-linejoin="miter">
</g>
	<g id="gnuplot_plot_1" ><title>pages</title>
<g fill="none" color="black" stroke="currentColor" stroke-width="1.00" stroke-linecap="butt" stroke-linejoin="miter">
	<g transform="translate(288.1,485.9)" stroke="none" fill="black" font-family="Arial" font-size="12.00"  text-anchor="end">
		<text><tspan font-family="Arial" >pages</tspan></text>
	</g>
</g>
<g fill="none" color="black" stroke="currentColor" stroke-width="1.00" stroke-linecap="butt" stroke-linejoin="miter">
	<path stroke='rgb(148,   0, 211)'  d='M296.4,482.0 L338.6,482.0 M78.8,232.0 L84.2,232.0 L89.6,232.0 L95.0,232.0 L100.5,232.0 L105.9,232.0
		L111.3,232.0 L116.7,232.0 L122.1,232.0 L127.5,232.0 L133.0,232.0 L138.4,232.0 L143.8,232.0 L149.2,232.0
		L154.6,232.0 L160.0,232.0 L165.5,232.0 L170.9,232.0 L176.3,232.0 L181.7,232.0 L187.1,232.0 L192.5,232.0
		L198.0,232.0 L203.4,232.0 L208.8,232.0 L214.2,232.0 L219.6,232.0 L225.0,232.0 L230.5,232.0 L235.9,232.0
		L241.3,232.0 L246.7,232.0 L252.1,232.0 L257.5,232.0 L262.9,232.0 L268.4,232.0 L273.8,232.0 L279.2,232.0
		L284.6,232.0 L290.0,232.0 L295.4,232.0 L300.9,232.0 L306.3,232.0 L311.7,232.0 L317.1,232.0 L322.5,232.0
		L327.9,232.0 L333.4,232.0 L338.8,232.0 L344.2,232.0 L349.6,232.0 L355.0,232.0 L360.4,232.0 L365.9,232.0
		L371.3,232.0 L376.7,232.0 L382.1,232.0 L387.5,232.0 L392.9,232.0 L398.4,232.0 L403.8,232.0 L409.2,232.0
		L414.6,232.0 L420.0,232.0 L425.4,232.0 L430.9,232.0 L436.3,232.0 L441.7,232.0 L447.1,232.0 L452.5,232.0
		L457.9,232.0 L463.3,232.0 L468.8,232.0 L474.2,232.0 L479.6,232.0 L485.0,232.0 L490.4,232.0 L495.8,232.0
		L501.3,232.0 L506.7,232.0 L512.1,232.0 L517.5,232.0 L522.9,232.0 L528.3,232.0 L533.8,232.0 L539.2,232.0
		L544.6,232.0 L550.0,232.0 L555.4,232.0 L560.8,232.0 L566.3,232.0 L571.7,232.0 L577.1,232.0 L582.5,232.0
		L587.9,232.0 L593.3,232.0 L598.8,232.0 L604.2,232.0 L609.6,232.0 L615.0,232.0  '/></g>
	</g>
	<g id="gnuplot_plot_2" ><title>pages+cached</title>
<g fill="none" color="black" stroke="currentColor" stroke-width="1.00" stroke-linecap="butt" stroke-linejoin="miter">
	<g transform="translate(446.5,485.9)" stroke="none" fill="black" font-family="Arial" font-size="12.00"  text-anchor="end">
		<text><tspan font-family="Arial" >pages+cached</tspan></text>
	</g>
</g>
<g fill="none" color="black" stroke="currentColor" stroke-width="1.00" stroke-linecap="butt" stroke-linejoin="miter">
	<path stroke='rgb(  0, 158, 115)'  d='M454.8,482.0 L497.0,482.0 M78.8,232.0 L84.2,232.0 L89.6,232.0 L95.0,232.0 L100.5,232.0 L105.9,232.0
		L111.3,232.0 L116.7,232.0 L122.1,232.0 L127.5,232.0 L133.0,232.0 L138.4,232.0 L143.8,232.0 L149.2,232.0
		L154.6,232.0 L160.0,232.0 L165.5,232.0 L170.9,232.0 L176.3,232.0 L181.7,232.0 L187.1,232.0 L192.5,232.0
		L198.0,232.0 L203.4,232.0 L208.8,232.0 L214.2,232.0 L219.6,232.0 L225.0,232.0 L230.5,232.0 L235.9,232.0
		L241.3,232.0 L246.7,232.0 L252.1,232.0 L257.5,232.0 L262.9,232.0 L268.4,232.0 L273.8,232.0 L279.2,232.0
		L284.6,232.0 L290.0,232.0 L295.4,232.0 L300.9,232.0 L306.3,232.0 L311.7,232.0 L317.1,232.0 L322.5,232.0
		L327.9,232.0 L333.4,232.0 L338.8,232.0 L344.2,232.0 L349.6,232.0 L355.0,232.0 L360.4,232.0 L365.9,232.0
		L371.3,232.0 L376.7,232.0 L382.1,232.0 L387.5,232.0 L392.9,232.0 L398.4,232.0 L403.8,232.0 L409.2,232.0
		L414.6,232.0 L420.0,232.0 L425.4,232.0 L430.9,232.0 L436.3,232.0 L441.7,232.0 L447.1,232.0 L452.5,232.0
		L457.9,232.0 L463.3,232.0 L468.8,232.0 L474.2,232.0 L479.6,232.0 L485.0,232.0 L490.4,232.0 L495.8,232.0
		L501.3,232.0 L506.7,232.0 L512.1,232.0 L517.5,232.0 L522.9,232.0 L528.3,232.0 L533.8,232.0 L539.2,232.0
		L544.6,232.0 L550.0,232.0 L555.4,232.0 L560.8,232.0 L566.3,232.0 L571.7,232.0 L577.1,232.0 L582.5,232.0
		L587.9,232.0 L593.3,232.0 L598.8,232.0 L604.2,232.0 L609.6,232.0 L615.0,232.0  '/></g>
	</g>
<g fill="none" color="#FFFFFF" stroke="rgb(  0, 158, 115)" stroke-width="2.00" stroke-linecap="butt" stroke-linejoin="miter">
</g>
<g fill="none" color="black" stroke="currentColor" stroke-width="2.00" stroke-linecap="butt" stroke-linejoin="miter">
</g>
<g fill="none" color="black" stroke="black" stroke-width="1.00" stroke-linecap="butt" stroke-linejoin="miter">
</g>
<g fill="none" color="black" stroke="currentColor" stroke-width="1.00" stroke-linecap="butt" stroke-linejoin="miter">
	<path stroke='black'  d='M78.8,18.1 L78.8,446.0 L615.0,446.0 L615.0,18.1 L78.8,18.1 Z  '/></g>
<g fill="none" color="black" stroke="currentColor" stroke-width="1.00" stroke-linecap="butt" stroke-linejoin="miter">
</g>
</g>
</svg>
